packages/ui-icons/src/Basic/16/Block_number_16.svg

<svg xmlns="http://www.w3.org/2000/svg" viewBox="0 0 20 20"><path d="M17 11V9.49A2.5 2.5 0 0 0 15 7V2H7.78L3 7.3V18h11.5a3.5 3.5 0 0 0 3.5-3.5V11Zm-1-1.5V11h-3V9.49a1.5 1.5 0 0 1 3 0ZM4 17V7.69L8.22 3H14v4a2.5 2.5 0 0 0-2 2.45V11h-1v3.5a3.49 3.49 0 0 0 1.06 2.5Zm13-2.5a2.5 2.5 0 0 1-5 0V12h5Zm-3.5-.5a1 1 0 0 1 2 0 1 1 0 0 1-.5.85V16h-1v-1.16a1 1 0 0 1-.5-.84Z"/></svg>

<svg id="ready" xmlns="http://www.w3.org/2000/svg" viewBox="0 0 20 20"><title>Megaicons_work_16_1.8_cp</title><path d="M17,11V9.49A2.5,2.5,0,0,0,15,7V2H7.78L3,7.3V18H14.5a3.5,3.5,0,0,0,3.5-3.5V11Zm-1-1.5V11H13V9.49a1.5,1.5,0,0,1,3,0ZM4,17V7.69L8.22,3H14V7a2.5,2.5,0,0,0-2,2.45V11H11v3.5A3.49,3.49,0,0,0,12.06,17Zm13-2.5a2.5,2.5,0,0,1-5,0V12h5ZM13.5,14a1,1,0,0,1,2,0,1,1,0,0,1-.5.85V16H14V14.84A1,1,0,0,1,13.5,14Z"/></svg>
